X: 38775
T: Stuck Behind The Mothership
R: jig
M: 6/8
K: Amajor
Ace d3|eag aec|dfe dBA|GAB dcB|
Ace d2f|eag aba|gef edc|1 BAG A3:|2 BAG AFD||
|:EAA FAB|c/B/AG ABc|d2f ece|
aec dcA|EAA FAB|c/B/AG ABc|
[1 def eag|aec B2A:|2 dag aec|dfe dB=G||
|:Ace a2e|fd=g edB|=GBd edc|
dea feB|Ace a2e|fd=g edB|
[1 =GAB dcd|efe dcB:|2 =cea =ge^c|dfe ^dBc||

